X: 1
T: Sm\aalands-polskan    [C]
N: Similar to the Danish "NÃ¥ er det jul igjen"
N: From arrangement by Carl J.Johnson
S: Printed MS of unknown origin from Marilyn Butler
R: hambo
Z: 2019 John Chambers <jc:trillian.mit.edu>
M: 3/4
L: 1/8
K: C
"(G7)"G2 |:\
"C"[c2E2] [cE]>G E>G | "C"[c2E2] [cE]>G E>G | [cE]>B c>d e>f | "F"[a2f2c2] "C"[g3e3c3] e |\
"Dm"[f2B2] [fB]>e "G7"d>f |
"C"[e2G2] [eG]>d "(Am)"c>e |\
[1 "D7"[d2F2] [dF]>c B>c | "G7"[dF]>c B>A [G2F2B,2]  :|\
[2 "G7"[d2F2] [dF]>G [AF]>B | "C"[c2E2] [c2E2] z2 |]
|:\
"F"[f2A2] a>f af | "C"[e2G2] g>e ge | "G"[dF]>e [fB]G [AF][BF] |\
[1,3 "C"[cE]>d [eG]>f [g2e2c2G2] :|[2,3 "C"[cGE]z H[c2G2E2] z2 |]

%%sep 1 1 500

